app/style/icons/tutorials/lifecycle/lifecycle-slide6-2.svg

<svg version="1.1" viewBox="0 0 1160 800" xmlns="http://www.w3.org/2000/svg">
 <path d="M1160 0H0V800H1160V0Z" fill="#fff"/>
 <path d="m559.8 166.53h-504c-5.6333 0-10.2 4.567-10.2 10.2v496.11c0 5.634 4.5667 10.2 10.2 10.2h504c5.633 0 10.2-4.566 10.2-10.2v-496.11c0-5.633-4.567-10.2-10.2-10.2z" fill="#FFC84E"/>
 <path d="m330.23 513.06 118.7-20.93-7.37-41.81c-12.626 2.21-25.613-0.681-36.108-8.04-10.495-7.358-17.641-18.582-19.867-31.205-2.226-12.624 0.65-25.614 7.995-36.119 7.345-10.504 18.56-17.664 31.18-19.906l-7.37-41.81-86.87 15.32-0.29 184.5z" fill="#fff"/>
 <path d="m285.34 336.52-118.67 20.93 7.37 41.8c12.635-2.228 25.637 0.654 36.147 8.013 10.509 7.359 17.665 18.592 19.893 31.227 2.228 12.634-0.655 25.637-8.014 36.146-7.359 10.51-18.591 17.666-31.226 19.894l7.37 41.81 86.84-15.34 0.29-184.48z" fill="#fff"/>
 <g fill="#091440">
  <path d="m285.28 375.37c-9.462 4.316-17.486 11.258-23.118 20.002-5.631 8.743-8.633 18.92-8.649 29.32s2.955 20.586 8.56 29.347c5.605 8.76 13.608 15.727 23.058 20.071l0.149-98.74z"/>
  <path d="m361.27 415.36c-1.523-8.65-5.124-16.801-10.492-23.752-5.369-6.952-12.344-12.497-20.328-16.158l-0.16 98.77c10.957-4.99 19.945-13.48 25.553-24.134 5.607-10.654 7.516-22.869 5.427-34.726z"/>
  <path d="m300.62 515.89-0.086 54.6 14.52 0.023 0.086-54.6-14.52-0.023z"/>
  <path d="m300.61 433.94-0.085 54.6 14.519 0.023 0.086-54.6-14.52-0.023z"/>
  <path d="m300.62 352-0.086 54.6 14.52 0.023 0.086-54.6-14.52-0.023z"/>
  <path d="m300.62 270.04-0.086 54.6 14.52 0.023 0.086-54.6-14.52-0.023z"/>
 </g>
 <path d="m1110.9 755.41h-133.58c-1.087 0-2.13-0.432-2.899-1.201s-1.201-1.811-1.201-2.899v-138.26c0-1.562 0.62-3.06 1.725-4.165 1.105-1.104 2.603-1.725 4.165-1.725h131.79c1.09 0 2.13 0.432 2.9 1.201s1.2 1.812 1.2 2.899v140c0 1.088-0.43 2.13-1.2 2.899s-1.81 1.201-2.9 1.201v0.05z" fill="#FFC84E"/>
 <path d="m1044.1 688.92v-38.19c-7.55 0-14.94 2.24-21.22 6.437-6.28 4.196-11.17 10.16-14.06 17.139-2.89 6.978-3.65 14.657-2.18 22.065 1.48 7.408 5.11 14.213 10.46 19.554 5.34 5.341 12.14 8.978 19.55 10.452 7.41 1.473 15.09 0.717 22.06-2.174 6.98-2.89 12.95-7.785 17.14-14.065 4.2-6.281 6.44-13.664 6.44-21.218h-38.19z" fill="#091440"/>
 <path d="m1047.9 635.59v-7.77h11.46v-7.64h-30.55v7.64h11.45v7.77c-13.82 0.989-26.71 7.301-35.96 17.605-9.256 10.304-14.151 23.798-13.656 37.639 0.495 13.842 6.341 26.951 16.306 36.568 9.97 9.617 23.28 14.991 37.13 14.991s27.16-5.374 37.13-14.991c9.96-9.617 15.81-22.726 16.31-36.568 0.49-13.841-4.4-27.335-13.66-37.639-9.25-10.304-22.15-16.616-35.96-17.605zm-3.82 99.16c-9.06 0-17.93-2.688-25.46-7.724-7.54-5.036-13.41-12.194-16.88-20.568s-4.378-17.589-2.61-26.479c1.77-8.89 6.13-17.057 12.54-23.466s14.58-10.774 23.47-12.543c8.89-1.768 18.1-0.86 26.48 2.608 8.37 3.469 15.53 9.343 20.57 16.88 5.03 7.537 7.72 16.397 7.72 25.462-0.01 12.15-4.85 23.8-13.44 32.392s-20.24 13.424-32.39 13.438z" fill="#fff"/>
 <path d="m1100.1 584.07h-485.53c-3.954 0-7.747-1.571-10.543-4.367s-4.367-6.588-4.367-10.543v-502.55c0-5.6757 2.255-11.119 6.268-15.132 4.013-4.0133 9.457-6.268 15.132-6.268h479c3.95 0 7.75 1.5709 10.54 4.3671 2.8 2.7962 4.37 6.5886 4.37 10.543v509c0 3.955-1.57 7.747-4.37 10.543-2.79 2.796-6.59 4.367-10.54 4.367l0.04 0.04z" fill="#091440"/>
 <path d="m873.22 127.24v374.76h-30.12c-79 0-143.06-83.9-143.06-187.4s64.05-187.4 143.06-187.4l30.12 0.04z" fill="#FFC84E"/>
 <path d="m874.05 502.04c79.01 0 143.06-83.902 143.06-187.4s-64.05-187.4-143.06-187.4-143.06 83.902-143.06 187.4 64.05 187.4 143.06 187.4z" fill="#FFC84E"/>
 <path d="m874.05 470.25c61.453 0 111.27-69.669 111.27-155.61s-49.817-155.61-111.27-155.61c-61.452 0-111.27 69.669-111.27 155.61s49.818 155.61 111.27 155.61z" fill="#fff"/>
 <polygon transform="matrix(1.893 0 0 1.893 822.29 248.56)" points="61 3.44 35.56 33.62 33.57 36 35.56 38.38 61 68.56 63.34 66.6 37.56 36 63.34 5.4" fill="#c1272d"/>
 <polygon transform="matrix(1.893 0 0 1.893 822.29 248.56)" points="56.65 72 58.99 70.04 30.3 36 58.99 1.96 56.65 0 28.31 33.62 2.34 2.67 0 4.64 26.32 36 0 67.36 2.34 69.33 28.31 38.38" fill="#1a1a1a"/>
 <g fill="#C4CBD2">
  <path d="M913.68 45.21H882.45V349.78H913.68V45.21Z"/>
  <path d="m835.6 45.21h-31.23v371.5h31.23v-371.5z"/>
  <path d="M757.52 45.21H726.29V495.35H757.52V45.21Z"/>
  <path d="M679.43 45.21H648.2V584.07H679.43V45.21Z"/>
  <path d="M991.77 45.21H960.54V282.85H991.77V45.21Z"/>
  <path d="m1069.8 45.21h-31.23v185.75h31.23v-185.75z"/>
 </g>
</svg>

<svg width="1160" height="800" viewBox="0 0 1160 800" fill="none" xmlns="http://www.w3.org/2000/svg">
<path d="M1160 0H0V800H1160V0Z" fill="white"/>
<path d="M559.8 166.53H55.7996C50.1663 166.53 45.5996 171.097 45.5996 176.73V672.84C45.5996 678.474 50.1663 683.04 55.7996 683.04H559.8C565.433 683.04 570 678.474 570 672.84V176.73C570 171.097 565.433 166.53 559.8 166.53Z" fill="#FFC84E"/>
<path d="M330.229 513.06L448.929 492.13L441.559 450.32C428.933 452.53 415.946 449.639 405.451 442.28C394.956 434.922 387.81 423.698 385.584 411.075C383.358 398.451 386.234 385.461 393.579 374.956C400.924 364.452 412.139 357.292 424.759 355.05L417.389 313.24L330.519 328.56L330.229 513.06Z" fill="white"/>
<path d="M285.34 336.521L166.67 357.451L174.04 399.251C186.675 397.023 199.677 399.905 210.187 407.264C220.696 414.623 227.852 425.856 230.08 438.491C232.308 451.125 229.425 464.128 222.066 474.637C214.707 485.147 203.475 492.303 190.84 494.531L198.21 536.341L285.05 521.001L285.34 336.521Z" fill="white"/>
<path d="M285.279 375.37C275.817 379.686 267.793 386.628 262.161 395.372C256.53 404.115 253.528 414.292 253.512 424.692C253.496 435.092 256.467 445.278 262.072 454.039C267.677 462.799 275.68 469.766 285.13 474.11L285.279 375.37Z" fill="#091440"/>
<path d="M361.27 415.36C359.747 406.71 356.146 398.559 350.778 391.608C345.409 384.656 338.434 379.111 330.45 375.45L330.29 474.22C341.247 469.23 350.235 460.74 355.843 450.086C361.45 439.432 363.359 427.217 361.27 415.36V415.36Z" fill="#091440"/>
<path d="M300.616 515.892L300.53 570.492L315.05 570.515L315.136 515.915L300.616 515.892Z" fill="#091440"/>
<path d="M300.606 433.943L300.521 488.543L315.04 488.566L315.126 433.966L300.606 433.943Z" fill="#091440"/>
<path d="M300.616 351.995L300.53 406.595L315.05 406.618L315.136 352.018L300.616 351.995Z" fill="#091440"/>
<path d="M300.616 270.036L300.53 324.636L315.05 324.659L315.136 270.059L300.616 270.036Z" fill="#091440"/>
<path d="M1110.9 755.41H977.32C976.233 755.41 975.19 754.978 974.421 754.209C973.652 753.44 973.22 752.398 973.22 751.31V613.05C973.22 611.488 973.84 609.99 974.945 608.885C976.05 607.781 977.548 607.16 979.11 607.16H1110.9C1111.99 607.16 1113.03 607.592 1113.8 608.361C1114.57 609.13 1115 610.173 1115 611.26V751.26C1115 752.348 1114.57 753.39 1113.8 754.159C1113.03 754.928 1111.99 755.36 1110.9 755.36V755.41Z" fill="#FFC84E"/>
<path d="M1044.11 688.92V650.73C1036.56 650.73 1029.17 652.97 1022.89 657.167C1016.61 661.363 1011.72 667.327 1008.83 674.306C1005.94 681.284 1005.18 688.963 1006.65 696.371C1008.13 703.779 1011.76 710.584 1017.11 715.925C1022.45 721.266 1029.25 724.903 1036.66 726.377C1044.07 727.85 1051.75 727.094 1058.72 724.203C1065.7 721.313 1071.67 716.418 1075.86 710.138C1080.06 703.857 1082.3 696.474 1082.3 688.92H1044.11Z" fill="#091440"/>
<path d="M1047.93 635.59V627.82H1059.39V620.18H1028.84V627.82H1040.29V635.59C1026.47 636.579 1013.58 642.891 1004.33 653.195C995.074 663.499 990.179 676.993 990.674 690.834C991.169 704.676 997.015 717.785 1006.98 727.402C1016.95 737.019 1030.26 742.393 1044.11 742.393C1057.96 742.393 1071.27 737.019 1081.24 727.402C1091.2 717.785 1097.05 704.676 1097.55 690.834C1098.04 676.993 1093.15 663.499 1083.89 653.195C1074.64 642.891 1061.74 636.579 1047.93 635.59V635.59ZM1044.11 734.75C1035.05 734.75 1026.18 732.062 1018.65 727.026C1011.11 721.99 1005.24 714.832 1001.77 706.458C998.3 698.084 997.392 688.869 999.16 679.979C1000.93 671.089 1005.29 662.922 1011.7 656.513C1018.11 650.104 1026.28 645.739 1035.17 643.97C1044.06 642.202 1053.27 643.11 1061.65 646.578C1070.02 650.047 1077.18 655.921 1082.22 663.458C1087.25 670.995 1089.94 679.855 1089.94 688.92C1089.93 701.07 1085.09 712.72 1076.5 721.312C1067.91 729.904 1056.26 734.736 1044.11 734.75V734.75Z" fill="white"/>
<path d="M1100.08 584.07L614.55 584.07C610.596 584.07 606.803 582.499 604.007 579.703C601.211 576.907 599.64 573.115 599.64 569.16L599.64 66.6104C599.64 60.9347 601.895 55.4915 605.908 51.4783C609.921 47.465 615.365 45.2103 621.04 45.2103L1100.04 45.2103C1103.99 45.2103 1107.79 46.7812 1110.58 49.5774C1113.38 52.3736 1114.95 56.166 1114.95 60.1204V569.12C1114.95 573.075 1113.38 576.867 1110.58 579.663C1107.79 582.459 1103.99 584.03 1100.04 584.03L1100.08 584.07Z" fill="#091440"/>
<path d="M873.22 127.24V502H843.1C764.1 502 700.04 418.1 700.04 314.6C700.04 211.1 764.09 127.2 843.1 127.2L873.22 127.24Z" fill="#FFC84E"/>
<path d="M874.05 502.04C953.06 502.04 1017.11 418.138 1017.11 314.64C1017.11 211.142 953.06 127.24 874.05 127.24C795.04 127.24 730.99 211.142 730.99 314.64C730.99 418.138 795.04 502.04 874.05 502.04Z" fill="#FFC84E"/>
<path d="M874.05 470.25C935.503 470.25 985.32 400.581 985.32 314.64C985.32 228.699 935.503 159.03 874.05 159.03C812.598 159.03 762.78 228.699 762.78 314.64C762.78 400.581 812.598 470.25 874.05 470.25Z" fill="white"/>
<path d="M849.81 279.63L826.4 244.36H851.61L889 300.66H863.77C861.265 300.687 858.819 301.418 856.71 302.77C854.306 304.321 852.261 306.367 850.71 308.77C848.906 311.538 847.555 314.576 846.71 317.77C844.83 324.743 844.83 332.088 846.71 339.06C847.555 342.254 848.906 345.293 850.71 348.06C852.261 350.464 854.306 352.509 856.71 354.06C858.816 355.417 861.264 356.149 863.77 356.17H873.23L891.69 383.98H863.77C858.694 383.949 853.731 382.475 849.46 379.73C844.587 376.579 840.447 372.419 837.32 367.53C833.669 361.904 830.935 355.734 829.22 349.25C827.32 342.222 826.371 334.971 826.4 327.69C825.995 317.257 828.083 306.876 832.49 297.41C836.74 288.65 842.85 282.35 849.81 279.53V279.63Z" fill="#091440"/>
<path d="M914.4 349.61L937.62 384.91H912.62L875.56 328.56H900.56C903.047 328.534 905.476 327.798 907.56 326.44C909.942 324.883 911.967 322.838 913.5 320.44C915.295 317.667 916.644 314.63 917.5 311.44C919.353 304.461 919.353 297.119 917.5 290.14C916.644 286.95 915.295 283.913 913.5 281.14C911.967 278.742 909.942 276.697 907.56 275.14C905.476 273.782 903.047 273.049 900.56 273.03H891.18L872.88 244.5H900.56C905.602 244.533 910.529 246.007 914.76 248.75C919.583 251.924 923.674 256.09 926.76 260.97C930.368 266.614 933.067 272.789 934.76 279.27C936.644 286.311 937.586 293.571 937.56 300.86C937.907 311.363 935.823 321.805 931.47 331.37C927.26 340.23 921.23 346.7 914.34 349.75L914.4 349.61Z" fill="#091440"/>
<path d="M913.68 45.21H882.45V349.78H913.68V45.21Z" fill="#C4CBD2"/>
<path d="M835.6 45.21H804.37V416.71H835.6V45.21Z" fill="#C4CBD2"/>
<path d="M757.52 45.21H726.29V495.35H757.52V45.21Z" fill="#C4CBD2"/>
<path d="M679.43 45.21H648.2V584.07H679.43V45.21Z" fill="#C4CBD2"/>
<path d="M991.77 45.21H960.54V282.85H991.77V45.21Z" fill="#C4CBD2"/>
<path d="M1069.85 45.21H1038.62V230.96H1069.85V45.21Z" fill="#C4CBD2"/>
</svg>
